X:4639
L:1/8
Q:3/8=100
M:6/8
K:G
 def gfe | d2 d dcB | cde dcB | ABG FED | def gfe | d2 d def | gfe AB^c | d3 D3 |:

